X: 0803
M: 2/4
L: 1/16
K: D
dcde |\
fafd cABc | dAFA DFAF | EGBG AFDF | E2E2 DF Ad |\
fafd cABc | dAFA DFAF | EGBG Acec | d4 :|
|:\
fdAF EGBe | gfge dcBA | BAGF GBEc | [d4F4] :|

